X:8008
T:Hunt the Squirrel
R:Jig
C:Trad.
O:Sussex England
M:6/8
L:1/8
Q:1/8=240
K:G
"G"G2d d2e|d3B3|GAB A2"D"G|"G"GAB A2"D"G|
"G"G2d d2e|d3B3|GAB A2"D"G|"G"G3-G3:|
|:"C"c2d edc|c2d edc|c2d e2f|g3-g fe|
"G"d2B d2B|d2B d3|GAB A2G|G3-G3:|

